Obsidian-SemiLight/actions/16s/code-typedef.svg

<svg viewBox="0 0 16 16" xmlns="http://www.w3.org/2000/svg"><path d="m4 2a1.9999999 2.0000002 0 0 0 -2 2 1.9999999 2.0000002 0 0 0 2 2v1h-1-1v5 1h2v1h10v-3h-10v1h-1v-4h1v2h10v-6h-8a1.9999999 2.0000002 0 0 0 -2-2zm0 1a.99999988 1 0 0 1 1 1 .9999999 1 0 0 1 -1 1 .99999988 1 0 0 1 -1-1 .99999988 1 0 0 1 1-1zm1 2h8v4h-8z" fill="#4d4d4d"/></svg>

<svg xmlns="http://www.w3.org/2000/svg" viewBox="0 0 16 16">
  <defs id="defs3051">
    <style type="text/css" id="current-color-scheme">
      .ColorScheme-Text {
        color:#4d4d4d;
      }
      </style>
  </defs>
 <path style="fill:currentColor;fill-opacity:1;stroke:none" 
     d="M 4 2 A 1.9999999 2.0000002 0 0 0 2 4 A 1.9999999 2.0000002 0 0 0 4 6 L 4 7 L 3 7 L 2 7 L 2 12 L 2 13 L 4 13 L 4 14 L 14 14 L 14 11 L 4 11 L 4 12 L 3 12 L 3 8 L 4 8 L 4 10 L 14 10 L 14 4 L 6 4 A 1.9999999 2.0000002 0 0 0 4 2 z M 4 3 A 0.99999988 1 0 0 1 5 4 A 0.9999999 1 0 0 1 4 5 A 0.99999988 1 0 0 1 3 4 A 0.99999988 1 0 0 1 4 3 z M 5 5 L 13 5 L 13 9 L 5 9 L 5 5 z "
     class="ColorScheme-Text"
     />
</svg>
